X: 28543
T: Munsterman's Rambles
R: polka
M: 2/4
K: Gmajor
D3C|:B,D GD|ED GD|B,D GB|AG ED|B,D GD|ED GA/B/|cA BG|ED D>C:|
|:Bd Bd|BA G>A|Bd Bd|B/c/B/G/ A2|Bd Bd|BA GA/B/|cA BG|ED D2:|

